X: 8
T: Little Katie Taylor
C: Paddy Taylor
M: 4/4
L: 1/8
R: reel
K: Dmaj
|: D2 FA GEAF | DEFA d2 ef | geag fd d/d/d | ABAG EFGE |
DEFA GEAF | DEFA d2 ef | geag fd B/c/d |[1 eddc dBAF :|[2 eddc d3 e ||
fdaf g2 ag | fdaf g2 ag | fd=cA G2 E/F/G |
[1 ABcA dcAe | fdaf g2 ag | fdaf g2 ag | fd=cA G2 E/F/G | ABcA d3e :| 
[2 ABcA dcAF | DEFA GEAF | DEFA d2 ef | geag fd B/c/d | eddc dBAF |]
